X:1
T:Gud, vær mig naadig
T:Gud, vær mig naadig
T:Camille Saint-Saens
T:fra Religiøse korsange (Lars Søraas), nr. 111
C:Camille Saint-Saens
%%score [ 1 2 3 4 ]
L:1/8
Q:1/4=70
M:2/2
K:Eb
V:1 treble nm="Sopran"
V:2 treble nm="Alt"
V:3 treble-8 nm="Tenor"
V:4 bass nm="Bas"
V:1
"^\n"!p!"^Andante" E4 F2 G2 | A4 G4 | G4 F2 E2 | F4 E4 |!<(! G4 (A2!<)! B2) | c4 B4 | %6
w: Gud, vær mig|naa- dig|ef- ter din|god- het,|og for- *|lat mig|
!>(! (B4 A2) G2!>)! | G4 !breath!F4 | B4 _c2 B2 | B4 A4 |!<(! (A6 B2)!<)! | _c4 _d4 | %12
w: mi- * ne|syn- der|ef- ter din|sto- re|barm- *|hjer- tig-|
!f! !breath!e6 e2 | =d4 _d4 | _c2 !>!B4 =A2 |!>(! B8!>)! |!p! E4 (F2 G2) | F4 E4 | E4 (F2 G2) | %19
w: het, din|sto- re|barm- hjer- tig-|het,|Tvæt mig _|vel af|min mis- *|
 F4 !breath!E4 | E4 c4 | (c2 B2) (G2 E2) | F6 F2 | !breath!B8 |!<(! B4 c2 d2!<)! | c4 B4 | %26
w: gjer- ning,|rens mig|du _ fra _|al min|synd.|Skap in- den-|i mig,|
!<(! B2 B2 (c2 d2)!<)! | c4 !breath!B2 B2 |!f! e4 (g4- | g2 e2) !breath!d2 c2 | B4"^dim." B2 B2 | %31
w: Gud, et rent _|hjer- te, et|rent hjer-|* * te, og|giv mig en|
 (B2 =B2 c2) A2 | (G2 B2) !breath!d2 e2 | (A4 G2) F2 | F8 | E4 z4 :|!pp!!<(! (E4 F2 G2 | %37
w: ny _ _ og|vis _ aand, en|ny _ og|vis|aand,|A- * *|
 A4!<)!!>(! G4!>)! |!<(! F8)!<)! |!>(! G8!>)! |] %40
w: ||men!|
V:2
!p! B,4 D2 E2 | (C2 D2) E4 | E4 D2 C2 | D4 B,4 |!<(! E6!<)! E2 | (E2 A2) G4 |!>(! (E4 F2) E2!>)! | %7
w: Gud, vær mig|naa- * dig|ef- ter din|god- het,|og for-|lat _ mig|mi- * ne|
 E4 !breath!D4 | F4 A2 _G2 | _G4 F4 |!<(! (F6 =G2)!<)! | A4 B4 |!f! B4 =A4 | B4 B4 | _G2 !>!G4 F2 | %15
w: syn- der|ef- ter din|sto- re|barm- *|hjer- tig-|het, din|sto- re|barm- hjer- tig-|
!>(! =D4 B,4-!>)! |!p! B,6 B,2 | B,6 B,2 | C6 C2 | _D6 !breath!D2 | C4 =D4 | E4 E4 | (E4 D2) D2 | %23
w: het, Tvæt|_ mig|vel af|min mis-|gjer- ning,|rens mig|du fra|al _ min|
 !breath!E8 |!<(! E6 E2!<)! | =E6 E2 |!<(! F8!<)! | ^F4 !breath!G2 G2 |!f! G4 G4- | %29
w: synd.|Skap i|mig et|rent|hjer- te, et|rent hjer-|
 G4 !breath!G2 A2 | (B4"^dim." =A2) _A2 | (G2 F2) E4- | E4 E4- | E2 C4 D2 | D8 | E4 z4 :| %36
w: * te, og|giv _ en|ny _ aand,|_ en|_ ny og|vis|aand,|
 z4!pp! (B,4 | C2 D2 E4- | E4 D4) | E8 |] %40
w: A-|||men!|
V:3
!p! G4 B2 B2 | A4 B4 | B4 B2 G2 | B4 G4 |!<(! B6!<)! B2 | (A2 c2) e4 |!>(! B6 B2!>)! | %7
w: Gud, vær mig|naa- dig|ef- ter din|god- het,|og for-|lat _ mig|mi- ne|
 B4 !breath!B4 | d4 e2 _d2 | (_d2 e2) f4 |!<(! (f4 e2 _d2)!<)! | e4 _g4 |!f! _g4 f4 | f4 B4 | %14
w: syn- der|ef- ter din|sto- * re|barm- * *|hjer- tig-|het, din|sto- re|
 e2 !>!_d4 c2 |!>(! B8!>)! |!p! G6 G2 | G6 G2 | G6 G2 | G6 !breath!G2 | A4 F4 | G4 E4 | B6 B2 | %23
w: barm- hjer- tig-|het,|Tvæt mig|vel af|min mis-|gjer- ning,|rens mig|du fra|al min|
 !breath!B8 |!<(! B6 B2!<)! | B6 B2 |!<(! B8!<)! | e4 !breath!e2 e2 |!f! (e4 d4- | %29
w: synd.|Skap i|mig, et|rent|hjer- te, et|rent hjer-|
 d2 c2) !breath!d2 e2 | (e2 B4)"^dim." B2 | (B2 _d2 c2) _c2 | B4 G4 | (F4 A2) A2 | A8 | G4 z4 :| %36
w: * * te, og|giv _ en|ny _ _ og|vis aand,|ny _ og|vis|aand,|
 z8 |!pp! (F4 G2 A2 | B8) | B8 |] %40
w: |A- * *||men!|
V:4
!p! E,4 B,,2 E,2 | F,4 E,4 | E,4 B,,2 C,2 | B,,4 E,4 |!<(! E,4 (F,2!<)! G,2) | A,4 E,4 | %6
w: Gud, vær mig|naa- dig|ef- ter din|god- het,|og for- *|lat mig|
!>(! (G,4 D,2) E,2!>)! | B,4 !breath!B,,4 | B,4 A,2 B,2 | (B,2 _C2) _D4 |!<(! (_D4 _C2 B,2)!<)! | %11
w: mi- * ne|syn- der|ef- ter din|sto- * re|barm- * *|
 A,4 _G,4 |!f! _C6 C2 | B,4 _G,4 | E,2 !>!=E,4 F,2 |!>(! B,,8!>)! |!p! E,6 E,2 | D,6 D,2 | %18
w: hjer- tig-|het, din|sto- re|barm- hjer- tig-|het,|Tvæt mig|vel af|
 C,6 C,2 | B,,6 !breath!B,,2 | A,,8 | G,,4 C,4 | B,,6 B,,2 | !breath!G,,8 |!<(! G,6 G,2!<)! | %25
w: min mis-|gjer- ning,|rens|mig fra|al min|synd.|Skap i|
 G,6 G,2 |!<(! A,8!<)! | =A,4 !breath!B,2 B,2 |!f! (C4 =B,4- | B,2 C2) !breath!_B,2 A,2 | %30
w: mig et|rent|hjer- te, et|rent hjer-|* * te, og|
 (G,2 _G,2)"^dim." F,2 _F,2 | (E,4 A,,4) | B,,8 | B,,4 B,,4 | B,,8 | E,4 z4 :| z8 | z8 | %38
w: giv _ mig en|ny _|aand,|ny og|vis|aand,|||
!pp!!<(! B,,8!<)! |!>(! E,8!>)! |] %40
w: A-|men!|

